!!!!SEGMENT: pl-wtm--r-233-m_moniuszko-stanislaw--grozna-dziewczyna.krn
!!!cenid: 18xx:1639
!!!COM: Moniuszko, Stanisław
!!!COM-rismid: pe30008351
!!!CDT: 1819/05/05-1872/06/04
!!!CNT: Polish
!!!OTL: Groźna Dziewczyna
!!!PDT:
!!!AGN: Secular
!!!SMS-siglum: PL-Wtm
!!!SMS-shelfmark: R 233/M
!!!SMS-shelfwork: W
!!!SMS-variant:
!!!SMS-altvar:
!!!NIFC-rismid: 1001063767
!!!URL-scan: http://repozytorium.nifc.pl/skany/pl-wtm-nut--r229m
!!!ONB-nifc:
**kern	**kern	**dynam	**kern	**text	**dynam
*part2	*part2	*part2	*part1	*part1	*part1
*staff3	*staff2	*	*staff1	*staff1	*
*Iempty	*Iforte	*	*Ivox	*	*
*I"	*I"[Fortepian]	*	*I"[Głos]	*	*
*I'	*I'pf	*	*I'V	*	*
*clefF4	*clefG2	*	*clefG2	*	*
*k[f#]	*k[f#]	*	*k[f#]	*	*
*e:	*e:	*	*e:	*	*
*M2/4	*M2/4	*	*M2/4	*	*
=1	=1	=1	=1	=1	=1
!	!	!	!LO:TX:a:t=P:problem:brak początku pieśni	!	!
!	!	!LO:DY:t=f.	!LO:TX:a:t=P:problem:Tytuł ołówkiem Groźna dziewczyna	!	!
8.EE\L 8.BB 8.E	8.G</L 8.B< 8.g	f	8.g^/	Je-	.
16EE\K 16BB 16E	16G</K 16B< 16f#	.	16f#/	-śli	.
8EE\ 8BB 8E	8G</ 8B< 8e	.	8e/	pu-	.
8EE\J 8BB 8E	8B</J 8e 8g	.	8g/	-ścisz	.
=2	=2	=2	=2	=2	=2
!LO:TX:t=P:problem:all\right t.2	!	!	!LO:TX:t=P:problem:all\right:global	!	!
8.E\L 8.G	8.B/L 8.e 8.b	.	8.b^\	się	.
16E\K 16G	16B/K 16e 16g	.	16a\	na	.
8E\ 8G	8B/ 8e 8g	.	8g\	wo-	.
8E\J 8G	8e/J 8b	.	8b\	-dy,	.
=3	=3	=3	=3	=3	=3
8.C\L 8.G 8.c	8.e/L 8.g 8.ee	.	8.ee^\	z_to-	.
16C\K 16G 16c	16e/K 16g 16dd	.	16dd\	-bą	.
8C\ 8G 8c	8e/ 8g 8cc	.	8cc\	łódz	.
8C\J 8G 8c	8e/J 8g 8ee	.	8ee\	za-	.
=4	=4	=4	=4	=4	=4
8G\ 8B|	8d/ 8g 8dd|	.	8dd\	-to-	.
4G\ 4B	4d^/ 4g	.	4g/	-nie,	.
8r	8r	.	8r	.	.
=5	=5	=5	=5	=5	=5
8.A\L	8.c/L 8.e 8.cc	.	8.cc\	je-	.
16A\K	16c/K 16e 16b	.	16b\	-śli	.
8A\	8c/ 8e 8a	.	8a\	pu-	.
8A\J	8e/J 8a 8cc	.	8cc\	-ścisz	.
=6	=6	=6	=6	=6	=6
8.G\L	8e/L 8b	.	8b\	się	.
.	8e/	.	8e/	na	.
16F#\K	.	.	.	.	.
8.E\	8g/	.	8g/	go-	.
.	8g/J 8b	.	8b\	-dy,	.
16D\Jk	.	.	.	.	.
!!LO:LB:g=original
=7	=7	=7	=7	=7	=7
8.C/L	8.f#/L 8.a	.	8.a/	roz-	.
16BB/K	16e/K 16g	.	16g/	-nio-	.
8AA/	8e/ 8f#	.	8f#/	-są	.
8C/J	8d/J 8a	.	8a/	cię	.
=8	=8	=8	=8	=8	=8
8.BB/L	8e/ 8g	.	8g/	ko-	.
.	4e/ 4g 4b	.	4b/	-nie;	.
16EE/K	.	.	.	.	.
8GG/	.	.	.	.	.
8BB/J	8b/	.	8r	.	.
=9	=9	=9	=9	=9	=9
8.AA/L	8.c/L 8.e 8.cc	.	8.cc\	w_le-	.
16GG/K	16B/K 16e 16b	.	16b\	-sie	.
8FF#/	8A/ 8e 8a	.	8a\	zgi-	.
8AA/J	8c/J 8e 8cc	.	8cc\	-niesz	.
=10	=10	=10	=10	=10	=10
8.GG/L	8B/L 8e 8b	.	8b\	w_cię-	.
.	8e/	.	8e/	-żkim	.
16BB/K	.	.	.	.	.
8.E/	8e/ 8g	.	8g/	bo-	.
.	8e/J 8b	.	8b\	-lu	.
16G/Jk	.	.	.	.	.
=11	=11	=11	=11	=11	=11
8B'\	8r	.	8B/	bo	.
!LO:TX:t=P:problem:4\right	!	!	!	!	!
4BB^\	(8B/L 8e 8g	.	8b\	cię	.
.	8A#X/) 8c#X 8f#	.	8.f#/	dąb	.
!LO:TX:t=P:problem:8\right	!	!	!	!	!
8BB\	8An/J 8d#X 8f#|	.	.	.	.
.	.	.	16g/	przy-	.
=12	=12	=12	=12	=12	=12
.	8qf#/	.	.	.	.
*^	*	*	*	*	*
8G/	8EE\ 8BB	16e/LL	.	16e/LL	-wa-	.
.	.	16d#X/JJ	.	16d#X/JJ	.	.
4G/	4EE\ 4BB	4e/	.	4e/	-li;	.
8r	8ryy	8B/	.	8ryy	.	.
*v	*v	*	*	*	*	*
!!LO:LB:g=original
=13	=13	=13	=13	=13	=13
8.EE\L 8.BB 8.E	8.G</L 8.B< 8.g	.	8.g^/	a	.
16EE\K 16BB 16E	16G</K 16B< 16f#	.	16f#/	przy	.
!	!LO:TX:i:t=cres_cen_do:problem:dynamics with extention lines	!	!	!	!
8EE\ 8BB 8E	8G</ 8B< 8e	<	8e/	żni-	.
8EE\J 8BB 8E	8G</J 8B< 8g	.	8g/	-wie	.
=14	=14	=14	=14	=14	=14
8.E\L 8.G	8.B/L 8.e 8.b	.	8.b^/	w_cięż-	.
16E\K 16G	16B/K 16e 16a	.	16a/	-kiem	.
8E\ 8G	8B/ 8e 8g	.	8g/	po-	.
8E\J 8G	8B/J 8e 8b	[[	8b/	-lu	.
=15	=15	=15	=15	=15	=15
!	!	!LO:DY:t=f.	!	!	!
8.C\L 8.G 8.c	8.e/L 8.g 8.ee	f	8.ee^\	pio-	.
16C\K 16G 16c	16e/K 16g 16dd	.	16dd\	-run	.
8C\ 8G 8c	8e/ 8g 8cc	.	8cc\	cię	.
8C\J 8G 8c	8e/J 8g 8ee	.	8ee\	wy-	.
=16	=16	=16	=16	=16	=16
8G\ 8B|	8d/ 8g 8dd|	.	8dd\	-pa-	.
4G\ 4B	4d/ 4g	.	4g/	-li!	.
8r	8r	.	8r	.	.
=17	=17	=17	=17	=17	=17
!LO:TX:t=P:problem:all\right t.17-18	!	!LO:DY:t=fp.	!LO:TX:a:i:t=piu lento.	!	!
8.A\L	(>8.c^</L 8.e 8.cc	fp	8.cc\	ach	.
16A\K	16c/K 16e 16b	.	16b\	i	.
8.A\	8c/) 8e 8a	.	8a\	po-	.
.	8c/J 8e 8cc	.	8cc\	-tem	.
(16A\Jk	.	.	.	.	.
=18	=18	=18	=18	=18	=18
8.G\L	8e/L 8b	.	8b\	nie	.
.	8e'/	.	8e/	raz	.
16F#\K	.	.	.	.	.
8.E\	8e'/ 8g	.	8g/	Sta-	.
.	8e'/J 8g 8b	.	8b\	-siu	.
16D\Jk)	.	.	.	.	.
!!LO:LB:g=original
=19	=19	=19	=19	=19	=19
(8.C^/L	8.e/L 8.a	.	8.a/	z_gro-	.
16BB/K	16e/K 16g	.	16g/	-bu	.
8AA/)	8e/ 8f#	.	8f#/	już	.
8C'/J	8e/J 8a	.	8a/	za-	.
=20	=20	=20	=20	=20	=20
8.BB/L	8e/ 8g	.	8g/	-pła-	.
.	4e/ 4g 4b	.	4b\	-cze:	.
16EE/K	.	.	.	.	.
8GG/	.	.	.	.	.
8BB/J	8b/	.	8r	.	.
=21	=21	=21	=21	=21	=21
!	!	!	!LO:TX:a:i:t=ra_len_tan_do.:problem:with extention lines	!	!
(8.AA/L	(8.c^/L 8.e 8.cc	.	8.cc^\	!	.
.	16r;	.	16r;	.	.
=23	=23	=23	=23	=23	=23
*2\right	*	*	*	*	*
!	!	!LO:DY:t=f.	!	!	!
2BBB\ 2BB	8ryy	f	8B/	a|	f
.	8B<^/L	.	8b^\	ja	.
.	8A#<X^^/ 8c#<X	.	8.f#^/	nie	.
.	8An<^^/J 8d#<X	.	.	.	.
.	.	.	16g/	prze-	.
=24	=24	=24	=24	=24	=24
!	!	!LO:DY:b=2	!	!	!
8.EE\L 8.E	8.G</L 8.B< 8.e	ff	8e/	-ba-	.
.	.	.	8e/	-czę.	.
16AA\K 16E	16A</K 16c< 16e	.	.	.	.
8AA\ 8E	8G</ 8B< 8e	.	4r	.	.
8AA\J 8E	8A</J 8c< 8e	.	.	.	.
=25	=25	=25	=25	=25	=25
8.EE\L 8.E	8.G</L 8.B< 8.e	.	2r	.	.
16AA\K 16E	16A</K 16c< 16e	.	.	.	.
8EE\ 8E	8G</ 8B< 8e	.	.	.	.
8AA\J 8E	8A</J 8c< 8e	.	.	.	.
=26	=26	=26	=26	=26	=26
2EE\ 2BB 2E	2G<;/ 2B< 2e	.	2r;	.	.
!!LO:PB:g=original
==	==	==	==	==	==
*-	*-	*-	*-	*-	*-
!!!system-decoration: [(s1)][(s2,s3)]
!!!RDF**kern: < = below
!!!RDF**kern: > = above
!!!AIN: 1 empty 1 vox
!!!ENC: Marta Chmielewska
!!!END: 2021-04-14
!!!ENC: Berenika Jozajtis
!!!END: 2021-03-28
!!!RDF**kern: | = vertical stroke
